X: 1037
T: A Theater Dance.
%R: jig
B: Henry Playford "Apollo's Banquet", London 1687 (5th Edition)
F: https://archive.org/details/apollosbanquetco01rugg
Z: 2017 John Chambers <jc:trillian.mit.edu>
M: 6/4
L: 1/4
K: D
% - - - - - - - - - -
a |\
f3 d2g | e3 c2f | d>cd B2e | c3 A3 |\
d>cd efg | g2f fea | b2a a2^g | a3- a2 :|
|: e |\
e>fe f2g | a>ba g2a | f>ed c2B | B3 F3 |\
G2A B>cd | d2e c2d | efg e2d | d3- d2 |]
% - - - - - - - - - -

%%sep 1 1 500
%%sep 1 1 500

